X: 1
T: The Derry Reel
C:
R: reel
M: C|
L: 1/8
K: Cmaj
cd|"C"e3d cdec |"G" d2ed cAGA |"C"cdeg c'2bg | "F"(3abc' ge "G"d2cd |
"C"e3d cdec | "G"d2ed cAGA | "C"cdeg age[1c|"G"dcBd "C"c2 :|2 g|"G"agab "C"c'2||
|:c'b|"Am"a3g egc'b | "G"bgdg bgc'b | "Am"a3g egc'b | "G"bagb "Am"a2 ab |
"C"c'ged cdec | "G"d2ed cAGA | "C"cdeg age[1g | "G"agab "C"c'2 :|2 "C"c | dcBd c2 || 

